assets/static/svgs/duotones/hustle-to-top.svg

<svg width="1em" height="1em"  viewBox="0 0 174 174" fill="none" xmlns="http://www.w3.org/2000/svg">
<symbol id="item"
width="1em"
height="1em"
viewBox="0 0 174 174"
fill="none"
>
 <path opacity="0.1" d="M130.101 100.953L128.422 99.0164C127.39 97.8545 125.582 97.8545 124.549 99.1456C123.516 100.437 121.709 100.308 120.676 99.1456L112.671 89.4625C111.768 88.4296 110.347 88.1714 109.315 88.946L104.538 92.1737C103.505 92.9484 102.084 92.6902 101.181 91.6573L95.2417 84.6855C94.0798 83.2653 92.014 83.5235 91.1103 85.0728L73.0352 114.38C72.2605 115.671 70.5821 116.059 69.4201 115.155L65.0305 112.185C63.8685 111.411 62.3192 111.669 61.4154 112.96L49.6666 130.648C49.2793 131.293 49.7957 132.068 50.4413 131.939L86.5915 125.354C89.9483 124.709 93.0469 122.772 94.9835 119.803L98.9859 113.993C100.019 112.573 101.697 111.669 103.376 111.927L109.315 113.993C111.251 114.251 114.209 115.155 117.836 112.831L130.101 104.439C131.134 103.406 131.005 101.857 130.101 100.953Z" fill="currentColor"/> <path opacity="0.1" d="M100.829 71.3756L102.378 72.1502C105.347 73.5704 108.833 73.5704 111.803 72.0211C114.901 70.3427 118.645 70.4718 121.744 72.1502L123.552 73.1831C124.713 73.8287 126.134 73.054 126.134 71.6338V56.7864C126.134 56.1409 125.746 55.6244 125.23 55.2371L121.744 53.3005C118.645 51.6221 114.901 51.493 111.803 53.1714C108.833 54.7207 105.347 54.7207 102.378 53.3005C101.216 52.7841 99.7957 53.5587 99.7957 54.8498V69.6972C99.7957 70.4718 100.183 70.9883 100.829 71.3756Z" fill="currentColor"/> <path d="M93.3755 53.2318L96.7323 54.9102C99.1853 56.0722 102.155 56.0722 104.608 54.7811L106.286 53.8773C108.868 52.5863 111.967 52.5863 114.549 54.0064L119.714 56.9759" stroke="currentColor" stroke-width="2" stroke-miterlimit="10" stroke-linecap="round" stroke-linejoin="round"/> <path d="M93.3755 48.2318L96.7323 49.9102C99.1853 51.0722 102.155 51.0722 104.608 49.7811L106.286 48.8773C108.868 47.5863 111.967 47.5863 114.549 49.0064L119.843 51.9759" stroke="currentColor" stroke-width="2" stroke-miterlimit="10" stroke-linecap="round" stroke-linejoin="round"/> <path d="M93.3755 58.2861L96.7323 59.9645C99.1853 61.1265 102.155 61.1265 104.608 59.8354L106.286 58.9316C108.868 57.6405 111.967 57.6405 114.549 59.0607L119.843 62.0302V47.0513L114.549 44.0819C112.096 42.6617 108.868 42.6617 106.286 43.9527L104.608 44.8565C102.155 46.1476 99.1853 46.1476 96.7323 44.9856L93.3755 43.3072V58.2861Z" stroke="currentColor" stroke-width="2" stroke-miterlimit="10" stroke-linecap="round" stroke-linejoin="round"/> <path d="M93.3755 81.3941V43.4363" stroke="currentColor" stroke-width="2" stroke-miterlimit="10" stroke-linecap="round" stroke-linejoin="round"/> <path d="M43 124.275L56.169 105.941C57.0728 104.779 58.6221 104.521 59.784 105.296L64.1737 108.136C65.4648 108.911 67.0141 108.523 67.9178 107.362L86.3803 79.4742C87.4131 78.054 89.4789 77.7958 90.6408 79.0869L96.7089 85.6714C97.6127 86.5751 99.0329 86.8334 100.195 86.1878L105.101 83.0892C106.263 82.4437 107.683 82.5728 108.587 83.6057L116.85 92.7723C117.883 93.9343 119.819 93.9343 120.852 92.7723C121.885 91.6103 123.692 91.6103 124.725 92.7723L128.082 96.2582" stroke="var(--color--bulma-100)" stroke-width="2" stroke-miterlimit="10" stroke-linecap="round" stroke-linejoin="round"/> <path d="M67.2725 123.747L75.9227 116.646C77.0847 115.742 78.7631 115.613 80.0542 116.387L82.3781 117.808C83.9274 118.711 85.9931 118.324 87.026 116.904L93.7396 108.124C95.1598 106.317 97.8711 106.317 99.2912 107.995L106.78 116.775C107.167 117.291 107.812 117.678 108.458 117.937L112.977 119.228C113.88 119.486 114.913 119.357 115.817 118.84L123.305 114.58" stroke="var(--color--bulma-100)" stroke-width="2" stroke-miterlimit="10" stroke-linecap="round" stroke-linejoin="round"/> <path d="M52.6835 73.3688C54.2767 75.2071 56.7276 76.31 59.3012 76.31C62.2423 76.31 64.8159 74.962 66.409 72.7561C67.1443 73.1237 67.8796 73.2463 68.7374 73.2463C69.9629 73.2463 71.0659 72.8786 71.9237 72.2659C72.659 73.0012 73.6394 73.6139 74.8649 73.6139C77.0708 73.6139 78.7865 71.8982 78.7865 69.6924C78.7865 67.4865 77.0708 65.7708 74.8649 65.7708C74.4972 65.7708 74.2521 65.7708 74.007 65.8933C73.2718 63.81 71.1884 62.2169 68.7374 62.2169C68.0021 62.2169 67.3894 62.3394 66.7767 62.5845C65.1835 60.011 62.3649 58.4178 59.1786 58.4178C54.7669 58.4178 50.9678 61.7267 50.3551 65.8933C49.9874 65.7708 49.7423 65.7708 49.3747 65.7708C47.1688 65.7708 45.4531 67.4865 45.4531 69.6924C45.4531 71.2855 46.311 72.6335 47.659 73.2463" stroke="var(--color--bulma-100)" stroke-width="2" stroke-miterlimit="10" stroke-linecap="round" stroke-linejoin="round"/> 
</symbol>
</svg>

<svg width="1em" height="1em"    viewBox="0 0 174 174" fill="none" xmlns="http://www.w3.org/2000/svg">
<symbol id="item"
width="1em"
height="1em"
viewBox="0 0 174 174"
fill="none"
>
<path opacity=".1" d="m130.101 100.953-1.679-1.937c-1.032-1.162-2.84-1.162-3.873.13-1.033 1.291-2.84 1.162-3.873 0l-8.005-9.683c-.903-1.033-2.324-1.292-3.356-.517l-4.777 3.228c-1.033.774-2.454.516-3.357-.517l-5.94-6.971c-1.161-1.42-3.227-1.163-4.13.387L73.034 114.38c-.775 1.291-2.453 1.679-3.615.775l-4.39-2.97c-1.162-.774-2.71-.516-3.615.775l-11.748 17.688c-.388.645.129 1.42.774 1.291l36.15-6.585c3.357-.645 6.456-2.582 8.393-5.551l4.002-5.81c1.033-1.42 2.711-2.324 4.39-2.066l5.939 2.066c1.936.258 4.894 1.162 8.521-1.162l12.265-8.392c1.033-1.033.904-2.582 0-3.486ZM100.829 71.376l1.549.774c2.969 1.42 6.455 1.42 9.425-.129 3.098-1.678 6.842-1.55 9.941.13l1.808 1.032c1.161.646 2.582-.129 2.582-1.55V56.787c0-.645-.388-1.162-.904-1.549l-3.486-1.937c-3.099-1.678-6.843-1.807-9.941-.129-2.97 1.55-6.456 1.55-9.425.13-1.162-.517-2.582.258-2.582 1.549v14.847c0 .775.387 1.291 1.033 1.679Z" fill="currentColor"/><path d="m93.376 53.232 3.356 1.678c2.453 1.162 5.423 1.162 7.876-.129l1.678-.904c2.582-1.29 5.681-1.29 8.263.13l5.165 2.969M93.376 48.232l3.356 1.678c2.453 1.162 5.423 1.162 7.876-.129l1.678-.904c2.582-1.29 5.681-1.29 8.263.13l5.294 2.969" stroke="currentColor" stroke-width="2" stroke-miterlimit="10" stroke-linecap="round" stroke-linejoin="round"/><path d="m93.376 58.286 3.356 1.678c2.453 1.163 5.423 1.163 7.876-.129l1.678-.903c2.582-1.291 5.681-1.291 8.263.129l5.294 2.97V47.05l-5.294-2.97c-2.453-1.42-5.681-1.42-8.263-.128l-1.678.903c-2.453 1.292-5.423 1.292-7.876.13l-3.356-1.679v14.98ZM93.376 81.394V43.436" stroke="currentColor" stroke-width="2" stroke-miterlimit="10" stroke-linecap="round" stroke-linejoin="round"/><path d="m43 124.275 13.169-18.334c.904-1.162 2.453-1.42 3.615-.645l4.39 2.84c1.29.775 2.84.387 3.744-.774L86.38 79.474c1.033-1.42 3.099-1.678 4.26-.387l6.069 6.584c.904.904 2.324 1.162 3.486.517l4.906-3.099c1.162-.645 2.582-.516 3.486.517l8.263 9.166c1.033 1.162 2.969 1.162 4.002 0a2.587 2.587 0 0 1 3.873 0l3.357 3.486" stroke="var(--color--bulma-100)" stroke-width="2" stroke-miterlimit="10" stroke-linecap="round" stroke-linejoin="round"/><path d="m67.272 123.747 8.65-7.101c1.163-.904 2.841-1.033 4.132-.259l2.324 1.421c1.55.903 3.615.516 4.648-.904l6.714-8.78c1.42-1.807 4.131-1.807 5.551-.129l7.489 8.78c.387.516 1.032.903 1.678 1.162l4.519 1.291c.903.258 1.936.129 2.84-.388l7.488-4.26M52.684 73.369c1.593 1.838 4.044 2.941 6.617 2.941 2.941 0 5.515-1.348 7.108-3.554.735.368 1.47.49 2.328.49 1.226 0 2.329-.367 3.187-.98.735.735 1.715 1.348 2.94 1.348 2.207 0 3.922-1.716 3.922-3.922 0-2.205-1.715-3.921-3.921-3.921-.368 0-.613 0-.858.122-.735-2.083-2.819-3.676-5.27-3.676a5.08 5.08 0 0 0-1.96.367c-1.594-2.573-4.412-4.166-7.598-4.166-4.412 0-8.211 3.309-8.824 7.475-.368-.122-.613-.122-.98-.122-2.206 0-3.922 1.716-3.922 3.921 0 1.594.858 2.942 2.206 3.554" stroke="var(--color--bulma-100)" stroke-width="2" stroke-miterlimit="10" stroke-linecap="round" stroke-linejoin="round"/>
</symbol>
</svg>
